apps/frontend/src/assets/icons/creation.svg

<svg xmlns="http://www.w3.org/2000/svg" fill="none" viewBox="0 0 24 24"><path fill="currentColor" d="m19 1-1.26 2.75L15 5l2.74 1.26L19 9l1.25-2.74L23 5l-2.75-1.25M9 4 6.5 9.5 1 12l5.5 2.5L9 20l2.5-5.5L17 12l-5.5-2.5M19 15l-1.26 2.74L15 19l2.74 1.25L19 23l1.25-2.75L23 19l-2.75-1.26"/></svg>

<svg width="24" height="24" viewBox="0 0 24 24" fill="none" xmlns="http://www.w3.org/2000/svg">
<path d="M19 1L17.74 3.75L15 5L17.74 6.26L19 9L20.25 6.26L23 5L20.25 3.75M9 4L6.5 9.5L1 12L6.5 14.5L9 20L11.5 14.5L17 12L11.5 9.5M19 15L17.74 17.74L15 19L17.74 20.25L19 23L20.25 20.25L23 19L20.25 17.74" fill="currentColor"/>
</svg>
